src/img/projects/windows.svg

<?xml version="1.0" encoding="UTF-8"?>
<svg width="90px" height="90px" viewBox="0 0 90 90" version="1.1" xmlns="http://www.w3.org/2000/svg" xmlns:xlink="http://www.w3.org/1999/xlink">
    <!-- Generator: Sketch 41.2 (35397) - http://www.bohemiancoding.com/sketch -->
    <title>community/card/logo/windows</title>
    <desc>Created with Sketch.</desc>
    <defs></defs>
    <g id="Symbols" stroke="none" stroke-width="1" fill="none" fill-rule="evenodd">
        <g id="community/card/logo/windows" fill="#01ADFF">
            <path d="M27.0063444,32.4324367 L42.4107621,30.3345144 L42.4174959,45.1933221 L27.0204163,45.2810039 L27.0063444,32.4324367 Z M42.403424,46.9053461 L42.4153808,61.7771034 L27.0183012,59.6602316 L27.0174379,46.805591 L42.403424,46.9053461 Z M44.2708001,30.0600692 L64.6957793,27.0790702 L64.6957793,45.0043442 L44.2708001,45.1664948 L44.2708001,30.0600692 Z M64.7005275,47.0452018 L64.6957362,64.8897566 L44.2707569,62.007002 L44.2421383,47.0117919 L64.7005275,47.0452018 Z" id="Combined-Shape"></path>
        </g>
    </g>
</svg>

<svg width="90" height="90" viewBox="0 0 90 90" xmlns="http://www.w3.org/2000/svg"><title>community/card/logo/windows</title><path d="M27.006 32.432l15.405-2.097.006 14.858-15.397.088-.014-12.849zm15.397 14.473l.012 14.872-15.397-2.117V46.806l15.385.1zm1.868-16.845l20.425-2.98v17.924l-20.425.162V30.06zM64.7 47.045l-.005 17.845-20.425-2.883-.029-14.995 20.459.033z" fill="#01ADFF" fill-rule="evenodd"/></svg>
